images/class_icons/cragheart.svg

<svg height="400" viewBox="0 0 400 400" width="400" xmlns="http://www.w3.org/2000/svg"><path d="m203.01 1.451c-2.419 2.686-12.117 14.9-47.547 59.885-51.756 65.712-51.669 65.601-51.325 65.923.576.538 28.028 19.361 70.761 48.518 13 8.87 20.983 14.236 21.177 14.236.315 0 17.073-40.546 43.087-104.251 7.445-18.231 9.922-24.394 10.369-25.791l.307-.961-.52-.861c-1.095-1.814-6.875-9.298-24.743-32.036-16.358-20.817-20.263-25.708-20.52-25.708-.057 0-.528.471-1.046 1.046m84.251 65.385c-.883 1.51-3.679 7.084-7.735 15.418-12.588 25.863-45.017 93.178-47.915 99.46-.759 1.646-.795 1.767-.574 1.957 2.138 1.841 94.256 73.44 95.382 74.137.169.104 1.788-1.679 16.028-17.662 27.403-30.755 36.837-41.397 36.824-41.541-.035-.408-91.426-132.21-91.673-132.207-.044 0-.196.197-.337.438m-214.61 76.507c-1.149 1.108-13.065 14.37-32.233 35.874-7.046 7.905-14.347 16.087-16.223 18.183-1.877 2.095-3.412 3.878-3.412 3.961 0 .496 91.609 132.452 91.808 132.242.621-.653 18.342-37.037 43.545-89.406 14.432-29.988 13.13-27.199 12.85-27.514-.994-1.116-20.196-16.197-55.693-43.74-8.313-6.45-19.578-15.196-25.034-19.434-8.785-6.826-13.88-10.733-14.41-11.051-.113-.068-.525.237-1.198.885m127.577 69.381c-1.867 4.366-3.102 7.381-28.923 70.593l-23.532 57.609.299.488c.715 1.17 7.284 9.668 21.292 27.547 20.044 25.583 24.378 31 24.702 30.875.203-.078 99.726-126.422 99.726-126.602 0-.12-3.636-2.816-6.882-5.103-6.743-4.749-72.307-49.598-84.367-57.71l-1.032-.695z" fill-rule="evenodd"/></svg>

<svg id="svg" xmlns="http://www.w3.org/2000/svg" xmlns:xlink="http://www.w3.org/1999/xlink" width="400" height="400" viewBox="0, 0, 400,400"><g id="svgg"><path id="path0" d="M203.010 1.451 C 200.591 4.137,190.893 16.351,155.463 61.336 C 103.707 127.048,103.794 126.937,104.138 127.259 C 104.714 127.797,132.166 146.620,174.899 175.777 C 187.899 184.647,195.882 190.013,196.076 190.013 C 196.391 190.013,213.149 149.467,239.163 85.762 C 246.608 67.531,249.085 61.368,249.532 59.971 L 249.839 59.010 249.319 58.149 C 248.224 56.335,242.444 48.851,224.576 26.113 C 208.218 5.296,204.313 0.405,204.056 0.405 C 203.999 0.405,203.528 0.876,203.010 1.451 M287.261 66.836 C 286.378 68.346,283.582 73.920,279.526 82.254 C 266.938 108.117,234.509 175.432,231.611 181.714 C 230.852 183.360,230.816 183.481,231.037 183.671 C 233.175 185.512,325.293 257.111,326.419 257.808 C 326.588 257.912,328.207 256.129,342.447 240.146 C 369.850 209.391,379.284 198.749,379.271 198.605 C 379.236 198.197,287.845 66.395,287.598 66.398 C 287.554 66.398,287.402 66.595,287.261 66.836 M72.651 143.343 C 71.502 144.451,59.586 157.713,40.418 179.217 C 33.372 187.122,26.071 195.304,24.195 197.400 C 22.318 199.495,20.783 201.278,20.783 201.361 C 20.783 201.857,112.392 333.813,112.591 333.603 C 113.212 332.950,130.933 296.566,156.136 244.197 C 170.568 214.209,169.266 216.998,168.986 216.683 C 167.992 215.567,148.790 200.486,113.293 172.943 C 104.980 166.493,93.715 157.747,88.259 153.509 C 79.474 146.683,74.379 142.776,73.849 142.458 C 73.736 142.390,73.324 142.695,72.651 143.343 M200.228 212.724 C 198.361 217.090,197.126 220.105,171.305 283.317 L 147.773 340.926 148.072 341.414 C 148.787 342.584,155.356 351.082,169.364 368.961 C 189.408 394.544,193.742 399.961,194.066 399.836 C 194.269 399.758,293.792 273.414,293.792 273.234 C 293.792 273.114,290.156 270.418,286.910 268.131 C 280.167 263.382,214.603 218.533,202.543 210.421 L 201.511 209.726 200.228 212.724 " stroke="none" fill="#000000" fill-rule="evenodd"></path></g></svg>
